X:339
T:El corazn se me parte (CT 067)
C:Tradicional
S:Msica Tradicional Asturiana, (C) Tello & Tito. Asturies, 2001.
S:http://pagina.de/MusTradAst <telloytito@asturies.org>
N:Cancin de empleo indeterminado, transcrita en Murias, ayuntamiento de Quirs.
A:Asturies
O:Murias (Quirs)
Z:Cancioneru de Torner 067
M:2/4
L:1/8
Q:1/4=106
K:C
|:GA Bc|d3 e|d2 c2|de dc|B3 A|G2 A2|de dc|B3 c|A2 G2-|G2 z2 :||
W:El corazn se me parte, (bis)
W:de pena y de sentimiento (bis)
W:al ver que ests en el mundo
W:y que para mi te has muerto.
W:
